Light and Airy by Gemini.xmp
<x:xmpmeta xmlns:x="adobe:ns:meta/" x:xmptk="Adobe XMP Core 5.6-c140 79.160451, 2017/05/06-01:08:21        ">
 <rdf:RDF xmlns:rdf="http://www.w3.org/1999/02/22-rdf-syntax-ns#">
  <rdf:Description rdf:about=""
    xmlns:crs="http://ns.adobe.com/camera-raw-settings/1.0/">
   <crs:Version>13.2</crs:Version> <crs:ProcessVersion>11.0</crs:ProcessVersion>
   <crs:WhiteBalance>As Shot</crs:WhiteBalance>
   <crs:Exposure2012>+1.00</crs:Exposure2012>
   <crs:Contrast2012>-20</crs:Contrast2012>
   <crs:Highlights2012>-70</crs:Highlights2012>
   <crs:Shadows2012>+60</crs:Shadows2012>
   <crs:Whites2012>+15</crs:Whites2012>
   <crs:Blacks2012>+10</crs:Blacks2012>
   <crs:Clarity2012>-10</crs:Clarity2012>
   <crs:Vibrance>+10</crs:Vibrance>
   <crs:Saturation>-5</crs:Saturation>
   <crs:ToneCurvePV2012>
    <rdf:Seq>
     <rdf:li>0, 20</rdf:li> <rdf:li>64, 70</rdf:li>
     <rdf:li>128, 130</rdf:li>
     <rdf:li>192, 185</rdf:li>
     <rdf:li>255, 245</rdf:li> </rdf:Seq>
   </crs:ToneCurvePV2012>
   <crs:ToneCurvePV2012Red>
    <rdf:Seq>
     <rdf:li>0, 0</rdf:li>
     <rdf:li>255, 255</rdf:li>
    </rdf:Seq>
   </crs:ToneCurvePV2012Red>
   <crs:ToneCurvePV2012Green>
    <rdf:Seq>
     <rdf:li>0, 0</rdf:li>
     <rdf:li>255, 255</rdf:li>
    </rdf:Seq>
   </crs:ToneCurvePV2012Green>
   <crs:ToneCurvePV2012Blue>
    <rdf:Seq>
     <rdf:li>0, 0</rdf:li>
     <rdf:li>255, 255</rdf:li>
    </rdf:Seq>
   </crs:ToneCurvePV2012Blue>
   <crs:HueAdjustmentGreen>+15</crs:HueAdjustmentGreen>
   <crs:SaturationAdjustmentGreen>-50</crs:SaturationAdjustmentGreen>
   <crs:LuminanceAdjustmentGreen>+20</crs:LuminanceAdjustmentGreen>
   <crs:HueAdjustmentAqua>+10</crs:HueAdjustmentAqua>
   <crs:SaturationAdjustmentAqua>-30</crs:SaturationAdjustmentAqua>
   <crs:LuminanceAdjustmentAqua>+15</crs:LuminanceAdjustmentAqua>
   <crs:SplitToningHighlightHue>40</crs:SplitToningHighlightHue>
   <crs:SplitToningHighlightSaturation>5</crs:SplitToningHighlightSaturation>
   <crs:SplitToningShadowHue>220</crs:SplitToningShadowHue>
   <crs:SplitToningShadowSaturation>3</crs:SplitToningShadowSaturation>
   <crs:Sharpening>40</crs:Sharpening>
   </rdf:Description>
 </rdf:RDF>
</x:xmpmeta>
